X:1
T:James Gibb editions
T:Psalm 17 (Becker) - Schütz
%%score [ ( 1 2 ) ( 3 4 ) ]
L:1/8
Q:1/4=108
M:2/2
K:G
V:1 treble nm="Soprano Alto"
V:2 treble 
V:3 bass nm="Tenor Bass"
V:4 bass 
V:1
"^Cornelius Becker\n(1561-1604)""^Heinrich Schütz\n(1585-1672)""^Psalm 17, SWV 113" A4 D4 | %1
w: ~Herr Gott,|
w: ver- nimm|
 A2 d4 c2 | B2 B2 A4 | F4 G4 | E2 G4 A2 | B4 A4 :|[M:2/2] A4 B4 | G2 A4 G2 | F2 F2 E4 | G4 A4 | %10
w: er- hör die|G'rech- tig- keit,|da- rauf|mein Herz be-|ste- het,|sprich du,|Herr, selbst in|mei- ner Sach',|und schau|
w: mein Schrei- en,|hilf zur Zeit,|mein G'bet|von Her- zen|ge- het,|||||
 B2 E4 G2 | G2 F2 G4 | A4 B4 | A2 G4 F2 | E4 D4 | d4 c4 | B2 A4 B2 | c2 B2 A4 | B4 G4 | F2 E4 D2 | %20
w: auf's Recht, du|fragst dar- nach|wie's Herz|geg'n dir sich|glei- che,|du lau-|terst mich und|fin- dest nichts,|denn ich|mein Sach da-|
w: ||||||||||
 E2 F2 G4 | F4 G4 | A2 G4 F2 | E4 D8 |] %24
w: hin ge- richt,|daß mein|Mund nicht ab-|wei- che.|
w: ||||
V:2
 D4 A,4 | A,2 B,4 G,2 | D2 D2 D4 | D4 B,4 | C2 E4 E2 | E4 E4 :|[M:2/2] D4 D4 | C2 C4 B,2 | %8
 B,2 B,2 B,4 | B,4 D4 | D2 C4 D2 | D2 D2 D4 | F4 G4 | F2 E4 D2 | C4 B,4 | B,4 E4 | G2 F4 G2 | %17
 G2 G2 F4 | F4 E4 | D2 C4 B,2 | C2 C2 D4 | D4 E4 | E2 E4 D2 | (D2 ^C2) D8 |] %24
V:3
 F,4 F,4 | F,2 F,4 E,2 | G,2 G,2 F,4 | A,4 G,4 | G,2 E,4 A,2 | ^G,4 A,4 :|[M:2/2] F,4 G,4 | %7
 E,2 E,4 E,2 | E,2 ^D,2 E,4 | E,4 F,4 | G,2 G,4 B,2 | A,2 A,2 B,4 | D4 D4 | D2 B,4 B,2 | G,4 G,4 | %15
 F,4 A,4 | D2 D4 D2 | E2 D2 D4 | D4 B,4 | B,2 G,4 G,2 | %20
"^2. Dein Wort ich ehr', drum Menschenlehr' mit rechtem Ernst ich hasse,\ndenn sie verletzt die Seele sehr, leit' mich, Herr, deine Strasse,\ndaß ich auf rechtem Wege geh', allzeit in dein Geboten steh'\nund meine Tritt nicht gleiten, ich ruf von Herzensgrund zu dir,\nHerr Gott, dein Ohr neig her zu mir, erhör mein Bitt beizeiten.\n\n3. Beweis dein wunderliche Güt', o Heiland, groß von Gnaden,\nvor deinen Feinden mich behüt', daß sie mir nicht tun Schaden,\nwie dein Augapfel mich bewahr, daß ich sicher vor aller G'fahr\nunter dein Flügeln bleibe, und mir nicht schad' der Bösen Rott,\ndie meine Seel in Angst und Not so gerne wollten treiben." G,2 A,2 B,4 | %21
 A,4 C4 | C2 C4 A,2 | A,4 A,8 |] %24
V:4
 D,4 D,4 | D,2 B,,4 C,2 | G,,2 G,,2 D,4 | D,4 E,4 | C,2 C,4 A,,2 | E,4 A,,4 :|[M:2/2] D,4 G,,4 | %7
 C,2 A,,4 E,2 | B,,2 B,,2 E,,4 | E,4 D,4 | G,,2 C,4 G,,2 | D,2 D,2 G,,4 | D,4 G,4 | D,2 E,4 B,,2 | %14
 C,4 G,,4 | B,,4 A,,4 | G,,2 D,4 G,2 | C,2 G,2 D,4 | B,,4 E,4 | B,,2 C,4 G,,2 | C,2 A,,2 G,,4 | %21
 D,4 C,4 | A,,2 C,4 D,2 | A,,4 D,8 |] %24

